X:285
T:Sporting Paddy
S:Played by Burke, Cooney & Corcoran on Radio Scotland, 1995
Z:Nigel Gatherer <gatherer@argonet.co.uk>
M:4/4
L:1/8
K:A dorian
EA (3AAA GABG|EAAB GEDF|EAAB GABd|edge dBAG|EA (3AAA GABG|EAAB GEDF|
EAAB GABd|edge d3||e|ge (3eee gede|ge (3eee a2 ba|ge (3eee gedg|
efge d3 e|ge (3eee gede|ge (3eee a2 ga|(3bag af gedg|efge dBAG|]
<end>
<start>
